X: 1
T: Compliments to the Boys of the Lough
C: Frank Ferrel
R: jig
M: 6/8
L: 1/8
K: A
|: "A"EAA ABc | "E7"BcB "A"A2c | "D"def "A"eac \
                               |1,3 "Bm"BAc  "E7"BAF :|2,4 "G(E7)"B3   "A"A3 :|
|: "A"cee ecA |  "D"fda "A"ecA |1,3  "A"cee "F#m"ecA  |    "Bm"fec   "E7"B2A \
                              :|2,4  "D"fda   "A"ecA  |     "G"BA=G   "A"A3  :|
